X: 13198
T: Firtur Fra Skælskør
R: reel
M: 4/4
K: Dmajor
DF|:A2BA ^GABc|d2ed cdef|gfef edcB|1 A2Bc d2 DF:|2 A2Bc d4 ]|
|:f3f e2d2|c2B2 A2G2|FAd2 EAc2|1 cAec dcde:|2 cAec d4 ]|
|:a^gaf gfed|cABc dAFA|gfge fdcd|1 Acec defg:|2 Acec d2AF ]|
|:DFAF EGBG|Acec dfaf|gfge fdcd|1 Acec d2AF:|2 Acec d2||

